X:1
T:Title
%%score { ( 1 3 ) | ( 2 4 ) }
L:1/8
M:4/4
K:Ab
V:1 treble nm="Grand Piano"
V:3 treble 
V:2 bass 
V:4 bass 
V:1
 z4 z2 z[Q:1/4=100] E | [A,CE]3 [A,CE] [A,EA]3 [A,EA] | BA[EG]F E3 A | [Gd]3 [Ad] [Bd]2 [Gd]2 | %4
[M:3/4] c6 |[M:1/4] c2 |[M:4/4] c3 c [=Ec]2 [EG]2 | [FA]2 [FB]2 [Ec]3 [Fc] | [FB]2 [EB]2 [=DB]3 D | %9
[M:7/8] E-E-E- E3 z |[M:1/8] E |[M:4/4] [CA]3 A c3 c | e2 B2 c3 c | c3 c =d2 [Ad]2 | %14
[M:7/8] [Ge]-[Ge]-[Ge]- [Ge]3 z |[M:1/8] [Ge] |[M:4/4] e2 e>d d c2 c | [=Ec]2 [Ec]>[EB] B A2 A | %18
 [Af]3 [Af] [Ge]2 [DEG]2 |[M:7/8] [CEA]-[CEA]-[CEA]- [CEA]3 z |] %20
V:2
 z4 z2 z E, | A,,3 A,, C,3 C, | [D,A,]2 z D [A,C]3 [A,CE] | [E,E]3 [F,E] [G,E]2 [E,E]2 | %4
[M:3/4][K:treble] [A,EA]6 |[M:1/4] [A,E]2 |[M:4/4][K:bass] [F,A,F]3 [F,A,F] [C,G,]2 [C,B,]2 | %7
 [F,A,]2 [D,F,]2 [C,G,]3 [F,A,] | [=D,B,]2 [E,G,]2 [B,,F,]3 [B,,A,B,] | %9
[M:7/8] [E,G,B,]-[E,G,B,]-[E,G,B,]- [E,G,B,]3 z |[M:1/8] [E,G,D] | %11
[M:4/4] [A,,A,]3 [E,A,C] [A,E]3 [A,E] | [G,B,E]2 [E,G,E]2[K:treble] [A,E]3 [G,B,=E] | %13
 [F,A,F]3 [F,A,F] [B,F]2[K:bass] [B,,B,]2 |[M:7/8] [E,B,]-[E,B,]-[E,B,]- [E,B,]3 z |[M:1/8] [E,D] | %16
[M:4/4][K:treble] [A,CA]2 [A,CA]>[A,FA] [A,FA] [A,EA]2[K:bass] [A,E] | %17
 [C,G,]2 [C,G,]>[C,C] [F,CF] [F,CF]2 [F,CF] | [D,D]3 [D,D] [E,B,]2 E,2 | %19
[M:7/8] A,,-A,,-A,,- A,,3 z |] %20
V:3
 x8 | x8 | F2 z2 z4 | x8 |[M:3/4] x6 |[M:1/4] x2 |[M:4/4] x8 | x8 | x8 |[M:7/8] x7 |[M:1/8] x | %11
[M:4/4] x8 | x8 | x8 |[M:7/8] x7 |[M:1/8] x |[M:4/4] x8 | x8 | x8 |[M:7/8] x7 |] %20
V:4
 x8 | x8 | z2 [D,A,]2 z4 | x8 |[M:3/4][K:treble] x6 |[M:1/4] x2 |[M:4/4][K:bass] x8 | x8 | x8 | %9
[M:7/8] x7 |[M:1/8] x |[M:4/4] x8 | x4[K:treble] x4 | x6[K:bass] x2 |[M:7/8] x7 |[M:1/8] x | %16
[M:4/4][K:treble] x7[K:bass] x | x8 | x8 |[M:7/8] x7 |] %20

